icon-themes/breeze_svg/sw/res/sidebar/pageproppanel/columncopy_24x24.svg

<svg viewBox="0 0 24 24" xmlns="http://www.w3.org/2000/svg"><path d="m3 4v16h1 16 1v-16h-17zm1 1h1 15v14h-15-1z" fill="#4d4d4d"/></svg>

<svg xmlns="http://www.w3.org/2000/svg" viewBox="0 0 24 24">
 <path 
     style="fill:#4d4d4d" 
     d="M 3 4 L 3 20 L 4 20 L 20 20 L 21 20 L 21 4 L 4 4 L 3 4 z M 4 5 L 5 5 L 20 5 L 20 19 L 5 19 L 4 19 L 4 5 z "
     />
</svg>
